X:1
T:Gigue for Jenny
T:(Greenholm)
C:Dance 1975 by Daniel Herr
M:6/8
L:1/8
K:G
%%LY voices \property Staff.barCheckNoSynchronize=##f
%%LY voices \partial 8
|:d | "G"dBG GBd | "C"efg g2 e | "G" dBG GBG | "D"A3-A2
%%LY voices \bar "empty" \break 
d | "G"dBG GBd | "C" efg g2 e | "G"dBG "D"ABA | "G"G3 - G2 :|
%%LY voices \bar "empty" \break 
B/c/ | 
%%LY voices |
"G"d2 g gfg | "C"e2 g gfe | "G"dBG GBG | "D"A3 - A2 
%%LY voices \bar "empty" \break 
B/c/ | "G"d2 g gfg | "C"e2 g gfe | "G"dBG "D"ABA | "G"G3 - G2
%%LY voices \bar "empty" \break 
B/ c/ | "G"d2 g gfg | "C"e2 g gfe | "G"dBG GBG | "D" A3 - A2
%%LY voices \bar "empty" \break 
d | "G"dBG  GBd | "C"efg g2 e | "G"dBG "D"ABA | "G"G3 - G2 |]
